!!!!SEGMENT: pl-wnifc--13846--137_anonim--137-ide-doszczyk-oblohamy.krn
!!!kernsource:
!!!cenid: 18xx:3359
!!!COM: Anonim
!!!COM-rismid: pe30004985
!!!CDT:
!!!CNT:
!!!GTL: Pieśni polskie i ruskie ludu galicyjskiego
!!!OTL: 137. Ide doszczyk obłohamy
!!!PDT: 1833
!!!AGN:
!!!SMS-siglum: PL-Wnifc
!!!SMS-shelfmark: 13846
!!!SMS-shelfwork: 137 G
!!!SMS-variant:
!!!SMS-altvar:
!!!NIFC-rismid: 1001039644
!!!URL-scan: http://repozytorium.nifc.pl/skany/pl-wnifc-nut--13846
!!!ONB-nifc:
!!!OMD: Kołomyika
!!!key: d
**kern	**kern	**kern	**text
*part2	*part2	*part1	*part1
*staff3	*staff2	*staff1	*staff1
*I"Fortepian	*I"Fortepian	*I"Głos	*
*Ipiano	*Ipiano	*Ivox	*
*ICklav	*ICklav	*ICvox	*
*IGacmp	*IGacmp	*IGsolo	*
*clefF4	*clefG2	*clefG2	*
*k[b-]	*k[b-]	*k[b-]	*
*d:	*d:	*d:	*
*M2/4	*M2/4	*M2/4	*
=1	=1	=1	=1
*tremolo	*	*	*
!LO:TX:b:t=....	!	!LO:TX:a:t=E.230.	!
8DD/L 8AA/ 8D/	8g#X|</L	8g#X/	I-
8DD/ 8AA/ 8D/	8a|</J	8a/	-de
8DD/ 8AA/ 8D/	8cc/^<L	8ccn\	do-
8DD/J 8AA/ 8D/	(<16bn\L	(>16bn\LL	-szczyk
.	16a/JJ)	16a\JJ)	.
=2	=2	=2	=2
!LO:TX:b:t=....	!	!	!
8DD/L 8AA/ 8D/	8g#X|</L	8g#X/	o-
8DD/ 8AA/ 8D/	8a|</J	(<8a/	-bło-
8DD/ 8AA/ 8D/	8cc|</L	8cc\)	-ha-
8DD/J 8AA/ 8D/	(16bn/L	(<16bn\LL	-my,
.	16a/JJ)	16a/JJ)	.
!!LO:LB:g=original
=3	=3	=3	=3
!LO:TX:b:t=....	!	!	!
8DD/L 8AA/ 8D/	8g#X/'L	8g#X/L	psze-
8DD/ 8AA/ 8D/	8a/'J	8a/J	-ny-
8DD/ 8AA/ 8D/	8ccn\^<	8cc/	-ciu
8DD/J 8AA/ 8D/	(<16bn\LL	(16bn\LL	my-
.	16a/JJ)	16a/JJ)	.
=4	=4	=4	=4
4DD|</ 4AA/ 4D/	8.g#X/^<L	8.g#X/L	-na-
.	.	.	.
*	*Xtuplet	*Xtuplet	*
!	!LO:TUP:b:problem:klamra łukowa	!LO:TUP:b:problem:klamra łukowa	!
.	48fn/LL	48fn/LL	.
.	48e/^<	48e/^>	.
.	48d/JJJ	48d/JJJ	.
4DD|</ 4AA/ 4D/	4d/	4d/	-je;
.	.	.	.
!!LO:LB:g=original
=5	=5	=5	=5
!LO:TX:b:t=....	!	!	!
8AAA/L 8DD/ 8AA/	8g#X/L	8g#X/	i-
8AAA/ 8DD/ 8AA/	8a/	8a/	-de
8AAA/ 8DD/ 8AA/	8cc\J	8cc/	ko-
8AAA/J 8DD/ 8AA/	(<16bn\LL	(<16bn\LL	-zak
.	16a/JJ)	16a/JJ)	.
=6	=6	=6	=6
!LO:TX:b:t=....	!	!	!
8AAA/L 8DD/ 8AA/	(<16gn/LL	(<16gn/LL	z U-
.	16f/JJ)	16f/JJ)	.
8AAA/ 8DD/ 8AA/	8f/	8f/	-kra-
8AAA/ 8DD/ 8AA/	16e/LL	(<16e/LL	-ji-
.	16d/JJ	16d/JJ)	.
8AAA/J 8DD/ 8AA/	8d/	8d/	-ny,
*Xtremolo	*	*	*
!!LO:LB:g=original
=7	=7	=7	=7
8AAA/L 8DD/ 8AA/	8d/L	8d/	tia-
8AAA/J 8DD/ 8AA/	8f/J	8f/	-zeń-
8AAA/L 8AA/	(<16e/LL	16e/LL	-ko
.	16d/)	16d/JJ	.
8AAA/J 8AA/	(<16e/	(<16e/LL	wzdy-
.	16c#X/JJ)	16c#X/JJ)	.
=8	=8	=8	=8
4DD/ 4AA/	4d/	4d/	-cha-
4DD/ 4AA/	8d/	8d/	-je.
.	8r	8r	.
!!LO:PB:g=original
==	==	==	==
*-	*-	*-	*-
!!!system-decoration: s1,{(s2,s3)}
!!!RDF**kern: < = below
!!!RDF**kern: > = above
!!!RDF**kern: | = vertical stroke
!!!ENC: Marta Chmielewska
!!!END: 2021-11-15
